X:1
T:Music of the Angels
T:Music of the Angels
T:John Robson Sweney
T:Frances Jane (Fanny) Crosby, 1881
T:Public Domain Courtesy of the Cyber Hymnal™
T:Public Domain Courtesy of the Cyber Hymnal™
C:John Robson Sweney
Z:Public Domain
Z:Courtesy of the Cyber Hymnal™
%%score ( 1 2 ) 3
L:1/8
Q:1/4=95
M:6/8
K:E
V:1 treble 
V:2 treble 
V:3 bass 
V:1
 [EG] | [EG][EG][EG] [EG][FA][GB] | [Ac][GB][F^A] [GB][EG][EG] | [FA][FA][FA] [EG][EG][EG] | %4
w: 1.~The|ev- er- green branch- es are|wav- ing a- round us, And|sweet- ly our car- ols in|
w: 2.~How|gra- cious- ly fa- vored the|shep- herds of Ju- dah, Who|guar- ded their flocks on that|
w: 3.~How|hum- ble His birth- place, how|low- ly His cra- dle, O|ten- der com- pas- sion, O|
w: 4.~The|sweet chim- ing bells with our|car- ols are blend- ing, A|glad, mer- ry Christ- mas they|
 [DF][DB][DB] [DB]2 [DA] | [EG][EG][EG] [EG][FA][GB] | [Ac][Ae][Ae] [Ae][Ad][Ac] | %7
w: har- mo- ny ring, While|here we are ga- thered to|wel- come with rap- ture The|
w: won- der- ful morn, When|le- gions de- scend- ed, pro-|claim- ing the tid- ings That|
w: in- fi- nite love! The|Son of the High- est our|na- ture as- sum- ing That|
w: joy- ful- ly ring. While|here we are ga- thered to|wel- come with rap- ture The|
 [GB][GB][GB] [GB][FA][EG] | [DF][DG][DF] !fermata!E2 || %9
w: birth of our Sav- ior, Re-|deem- er, and king.|
w: Je- sus, the prom- ised Re-|deem- er, was born.|
w: we might in- her- it the|man- sions a- bove.|
w: birth of our Sav- ior, Re-|deem- er, and king.|
[M:4/4][Q:1/4=105]"^Refrain" [GB]2 z [GB] [Ac][GB][F^A][GB] | [Ge]4 [GB]4 | %11
w: ||
w: Hark! the mu- sic of the|an- gels|
w: ||
w: ||
 [FA]3 [FA] [FA][FA][EG][DF] | [EG]8 | [GB]3 [GB] [Ac][GB][F^A][GB] | [Ge]4 [EG]4 | %15
w: ||||
w: Float- ing on- ward still we|hear;|Bless- èd mu- sic, sweet- est|chor- us|
w: ||||
w: ||||
 [DF]3 [DF] [FA][FA][EG][DF] | E6 z2 |] %17
w: ||
w: Ev- er sung to mor- tal|ear.|
w: ||
w: ||
V:2
 x | x6 | x6 | x6 | x6 | x6 | x6 | x6 | x3 E2 ||[M:4/4] x8 | x8 | x8 | x8 | x8 | x8 | x8 | E6 x2 |] %17
V:3
 [E,B,] | [E,B,][E,B,][E,B,] [E,B,][E,B,][E,E] | [E,E][E,E][E,E] [E,E][E,B,][E,B,] | %3
w: ~|~ ~ ~ ~ ~ ~|~ ~ ~ ~ ~ ~|
 [D,B,][D,B,][D,B,] [E,B,][E,B,][E,B,] | [B,,B,][B,,F,][B,,F,] [B,,F,]2 [B,,B,] | %5
w: ~ ~ ~ ~ ~ ~|~ ~ ~ ~ ~|
 [E,B,][E,B,][E,B,] [E,B,][E,B,][E,E] | [A,E][A,C][A,C] [A,C][A,D][A,E] | %7
w: ~ ~ ~ ~ ~ ~|~ ~ ~ ~ ~ ~|
 [E,E][E,E][E,E] [E,E][E,B,][E,B,] | [B,,B,][B,,B,][B,,A,] !fermata![E,G,]2 || %9
w: ~ ~ ~ ~ ~ ~|~ ~ ~ ~|
 [E,E]2 z2 z2 [E,E][E,E] | [E,B,][E,B,][E,B,] [E,B,][E,E] [E,E]3 | %11
w: ~ Hark! the|mu- sic of the an- gels,|
 [B,,D]3 [B,,D][B,,D][B,,D][B,,B,][B,,B,] | [E,B,]2 [E,B,] [E,B,] [E,B,]4 | %13
w: ~ ~ ~ ~ ~ ~|~ still we hear|
 [E,E]3 [E,E][E,E][E,E][E,E][E,E] | [E,B,][E,B,][E,B,] [E,B,][E,B,] [E,B,]3 | %15
w: ~ ~ ~ ~ ~ ~|chor- us, sweet- est chor- us|
 [B,,B,]3 [B,,B,][B,,B,][B,,B,][B,,B,][B,,A,] | [E,G,]6 z2 |] %17
w: ||

